source/img/about/about-parallax-first-3.svg

<svg width="2500" height="960" fill="none" xmlns="http://www.w3.org/2000/svg"><g clip-path="url(#clip0)"><path opacity=".66" d="M990.805 643.225v-25.23h-7.8V581.46h-34.136v5.895H908.88v24.754h-4.875v31.458h-13.8v-16.936h-30.187v-13.75h-41.01v-20.629h-11.703v-69.547h-16.04v-61.297H758.2v47.153h-19.167v50.685h-4.875v61.812h-9.755v19.523h-22.431v-38.509h-9.753v-34.574h-12.678v-8.252h-62.419v8.252h-25.359v19.451h-6.827v24.614h-9.561V466.714h-10.73v-10.609h-43.889v-24.757h-35.111v75.442h-5.85v122.377h-49.932v-20.559h-57.541V487.343h-7.803v-35.366h-13.656V373h-23.61v78.977H316.73v20.629h-6.828v114.343h-20.481v25.714h-85.827V433.119h-5.853v-9.434h-46.814v9.434h-6.825v179.544h-31.211v-74.635h-4.799v-35.362H91.435v-8.252H56.324v8.252H34.866v20.039h-8.778v64.244H12.435v7.558h-16.58V546.28H-5.89v-27.499h-26.333v23.575h-23.406v3.924h-3.134v48.227h-20.274v49.06H-92L-88.397 968 1007 960.912l-3.6-317.687h-12.595z" fill="#E0E5ED" fill-opacity=".36"/><path opacity=".66" d="M329.208 686.274v-32.996h10.143v-47.781h44.388v7.71h51.999v32.373h6.339v41.142h17.944v-22.15h39.254v-17.983h53.326v-26.978h15.217v-90.955h20.858V448.49h42.995v61.667h24.924v66.288h6.339v80.838h12.685v25.533h29.167v-50.363h12.682v-45.216h16.486v-10.792h81.168v10.792h32.974v25.438h8.878v32.191h12.432V455.429h13.953v-13.875h57.07v-32.377h45.656v98.665h7.607v160.047-10.349l-.002-97.24V401.706h10.15v-46.251h17.75V300h30.7v55.455h13.69v26.979h8.88v149.54h26.63v33.629h111.6V330.791h7.61v-12.337h60.88v12.337h8.87v234.812h40.59v-97.609h6.24v-46.248h21.66v-10.792h45.65v10.792h27.9v26.208h11.42v84.02h17.75v9.885h21.56v-63.073h2.27v-35.964h34.24v30.832h30.44v5.132h4.07v63.073h26.36v64.161h16.86V976H312.835V686.274h16.373z" fill="#F6F7FB"/><path opacity=".66" d="M1608.69 693.936V670.28h7.24v-34.257h31.68v5.528h37.12v23.209h4.53v29.497h12.8v-15.881h28.03v-12.892h38.06v-19.342h10.86v-65.209h14.89v-57.475h30.69v44.212h17.79v47.525h4.53v57.956h9.05v18.305h20.82v-36.107h9.06v-32.417h11.77v-7.737h57.93v7.737h23.54v18.238h6.34v23.079h8.87V528.433h9.96v-9.947h40.74v-23.212h32.59v70.736h5.43v114.745-190.838h7.24v-33.159h12.68V417h21.91v39.758h9.77V476.1h6.34v107.211h19.01v24.111h79.67V439.076h5.43v-8.846h43.45v8.846h6.34v168.346h28.97v-69.98h4.45v-33.157h15.46v-7.738h32.59v7.738h19.92v18.789h8.15v60.237h12.67v7.087h15.39v-45.219h1.62v-25.784h24.44V541.5h21.73v3.679h2.91v45.219h18.82v46H2514V965h-917V693.936h11.69z" fill="#F8F9FB"/></g><defs><clipPath id="clip0"><path fill="#fff" d="M0 0h2500v960H0z"/></clipPath></defs></svg>

<svg width="2500" height="960" viewBox="0 0 2500 960" fill="none" xmlns="http://www.w3.org/2000/svg">
<g clip-path="url(#clip0)">
<path opacity="0.66" d="M990.805 643.225V617.995H983.005V581.46H948.869V587.355H908.88V612.109H904.005V643.567H890.205V626.631H860.018V612.881H819.008V592.252H807.305V522.705H791.265V461.408H758.2V508.561H739.033V559.246H734.158V621.058H724.403V640.581H701.972V602.072H692.219V567.498H679.541V559.246H617.122V567.498H591.763V586.949H584.936V611.563H575.375V466.714H564.645V456.105H520.756V431.348H485.645V466.714V480.858V506.79H479.795V629.167H429.863V608.608H372.322V487.343H364.519V451.977H350.863V373H327.253V451.977H316.73V472.606H309.902V586.949H289.421V612.663H203.594V433.119H197.741V423.685H150.927V433.119H144.102V612.663H112.891V538.028H108.092V502.666H91.4351V494.414H56.324V502.666H34.8659V522.705H26.0881V586.949H12.4351V594.507H-4.14539V546.28H-5.88895V518.781H-32.2223V542.356H-55.6281V546.28H-58.7621V594.507H-79.0363V643.567H-92L-88.3967 968L1007 960.912L1003.4 643.225H990.805Z" fill="#E0E5ED" fill-opacity="0.36"/>
<path opacity="0.66" d="M329.208 686.274V653.278H339.351V605.497H383.739V613.207H435.738V645.58H442.077V686.722H460.021V664.572H499.275V646.589H552.601V619.611H567.818V528.656H588.676V448.49H631.671V510.157H656.595V576.445H662.934V657.283H675.619V682.816H704.786V632.453H717.468V587.237H733.954V576.445H815.122V587.237H848.096V612.675H856.974V644.866H869.406V455.429H883.359V441.554H940.429V409.177H986.085V455.429V473.927V507.842H993.692V667.889V657.54L993.69 560.3V401.706H1003.84V355.455H1021.59V300H1052.29V355.455H1065.98V382.434H1074.86V531.974H1101.49V565.603H1213.09V330.791H1220.7V318.454H1281.58V330.791H1290.45V565.603H1331.04V467.994H1337.28V421.746H1358.94V410.954H1404.59V421.746H1432.49V447.954H1443.91V531.974H1461.66V541.859H1483.22V478.786H1485.49V442.822H1519.73V473.654H1550.17V478.786H1554.24V541.859H1580.6V606.02H1597.46V976H312.835V686.274H329.208Z" fill="#F6F7FB"/>
<path opacity="0.66" d="M1608.69 693.936V670.28H1615.93V636.023H1647.61V641.551H1684.73V664.76H1689.26V694.257H1702.06V678.376H1730.09V665.484H1768.15V646.142H1779.01V580.933H1793.9V523.458H1824.59V567.67H1842.38V615.195H1846.91V673.151H1855.96V691.456H1876.78V655.349H1885.84V622.932H1897.61V615.195H1955.54V622.932H1979.08V641.17H1985.42V664.249H1994.29V528.433H2004.25V518.486H2044.99V495.274H2077.58V528.433V541.696V566.01H2083.01V680.755V673.335L2083.01 603.62V489.917H2090.25V456.758H2102.93V417H2124.84V456.758H2134.61V476.1H2140.95V583.311H2159.96V607.422H2239.63V439.076H2245.06V430.23H2288.51V439.076H2294.85V607.422H2323.82V537.442H2328.27V504.285H2343.73V496.547H2376.32V504.285H2396.24V523.074H2404.39V583.311H2417.06V590.398H2432.45V545.179H2434.07V519.395H2458.51V541.5H2480.24V545.179H2483.15V590.398H2501.97V636.398H2514L2514 965H1597L1597 693.936H1608.69Z" fill="#F8F9FB"/>
</g>
<defs>
<clipPath id="clip0">
<rect width="2500" height="960" fill="white"/>
</clipPath>
</defs>
</svg>
